X: 31468
T: Paddy Taylor's
R: jig
M: 6/8
K: Dmajor
AG|:F3 EFE|DFA d2 A|ded cAG|FAF GFE|
F3 EFE|DFA def|edc ABc|dfe d2:|
|:e|f2a g2e|fdB AB=c|B2B EFG|A2 D FED|
f2a g2e|fdB AFA|Bcd ecA|dfe d2:|

